svg/fluentui-system-icons/ic_fluent_multiplier_1_5x_48_regular.svg

<svg width="48" height="48" viewBox="0 0 48 48" fill="none" xmlns="http://www.w3.org/2000/svg">
<path d="M11.5002 15.2501C11.5002 14.6883 11.1254 14.1954 10.5839 14.0455C10.0426 13.8955 9.46774 14.1251 9.1786 14.6066L9.17589 14.6111L9.16077 14.6357C9.14656 14.6587 9.12416 14.6946 9.09402 14.742C9.03369 14.8366 8.94257 14.9765 8.82408 15.1497C8.58641 15.4971 8.24226 15.973 7.81898 16.4838C6.94523 17.5384 5.84318 18.6075 4.73304 19.1121C4.10457 19.3978 3.82668 20.1388 4.11235 20.7673C4.39801 21.3958 5.13907 21.6737 5.76754 21.388C7.01784 20.8197 8.12752 19.8529 9.00024 18.9235V32.75C9.00024 33.4403 9.55988 34 10.2502 34C10.9406 34 11.5002 33.4403 11.5002 32.75V15.2501ZM21.5003 14.0001C20.8581 14.0001 20.3204 14.4867 20.2565 15.1257L19.5065 22.6257C19.4688 23.0028 19.6042 23.3767 19.8748 23.6422C20.1453 23.9077 20.5217 24.0361 20.8981 23.9913L25.3497 23.4613C27.824 23.1668 30.0002 25.0993 30.0002 27.5911C30.0002 29.888 28.1382 31.75 25.8413 31.75H25.3572C24.049 31.75 22.8016 31.1982 21.9216 30.2302L21.1752 29.4092C20.7108 28.8984 19.9203 28.8607 19.4095 29.3251C18.8987 29.7895 18.861 30.58 19.3254 31.0909L20.0718 31.9119C21.4255 33.401 23.3447 34.25 25.3572 34.25H25.8413C29.5189 34.25 32.5001 31.2687 32.5001 27.5911C32.5001 23.6014 29.0158 20.5073 25.0541 20.9789L22.149 21.3247L22.6315 16.5001H30.2502C30.9405 16.5001 31.5002 15.9405 31.5002 15.2501C31.5002 14.5598 30.9405 14.0001 30.2502 14.0001H21.5003ZM36.134 24.3662C35.6458 23.878 34.8544 23.878 34.3662 24.3662C33.8781 24.8543 33.8781 25.6458 34.3662 26.1339L37.2323 29L34.3662 31.8661C33.8781 32.3543 33.8781 33.1457 34.3662 33.6339C34.8544 34.122 35.6458 34.122 36.134 33.6339L39.0001 30.7678L41.8661 33.6339C42.3543 34.122 43.1457 34.122 43.6339 33.6339C44.122 33.1457 44.122 32.3543 43.6339 31.8661L40.7678 29L43.6339 26.1339C44.122 25.6458 44.122 24.8543 43.6339 24.3662C43.1457 23.878 42.3543 23.878 41.8661 24.3662L39.0001 27.2323L36.134 24.3662ZM16.5003 32.75C16.5003 33.4404 15.9407 34 15.2504 34C14.56 34 14.0004 33.4404 14.0004 32.75C14.0004 32.0597 14.56 31.5 15.2504 31.5C15.9407 31.5 16.5003 32.0597 16.5003 32.75Z" fill="#212121"/>
</svg>

<svg xmlns="http://www.w3.org/2000/svg" width="48" height="48"><path d="M11.5 15.25a1.25 1.25 0 0 0-2.321-.643l-.003.004-.015.025a15.272 15.272 0 0 1-.337.514c-.238.347-.582.823-1.005 1.334-.874 1.054-1.976 2.123-3.086 2.628a1.25 1.25 0 0 0 1.035 2.276c1.25-.568 2.36-1.535 3.232-2.465V32.75a1.25 1.25 0 0 0 2.5 0v-17.5Zm10-1.25a1.25 1.25 0 0 0-1.244 1.126l-.75 7.5a1.25 1.25 0 0 0 1.392 1.365l4.452-.53a4.159 4.159 0 1 1 .491 8.289h-.484a4.643 4.643 0 0 1-3.435-1.52l-.747-.82a1.25 1.25 0 1 0-1.85 1.68l.747.822a7.143 7.143 0 0 0 5.285 2.338h.484a6.659 6.659 0 0 0 6.66-6.659c0-3.99-3.485-7.084-7.447-6.612l-2.905.346.482-4.825h7.62a1.25 1.25 0 0 0 0-2.5H21.5Zm14.634 10.366a1.25 1.25 0 1 0-1.768 1.768L37.232 29l-2.866 2.866a1.25 1.25 0 0 0 1.768 1.768L39 30.768l2.866 2.866a1.25 1.25 0 0 0 1.768-1.768L40.768 29l2.866-2.866a1.25 1.25 0 0 0-1.768-1.768L39 27.232l-2.866-2.866ZM16.5 32.75a1.25 1.25 0 1 1-2.5 0 1.25 1.25 0 0 1 2.5 0Z"/></svg>
